S/sequel-ace.com logo.svg

<svg viewBox="0 0 1.475 163.359" xmlns="http://www.w3.org/2000/svg" xmlns:xlink="http://www.w3.org/1999/xlink"><defs><linearGradient id="c" x1="50%" x2="50%" y1="0%" y2="100%"><stop offset="0%" stop-color="#B32222"/><stop offset="100%" stop-color="#691414"/></linearGradient><linearGradient id="d" x1="50%" x2="0%" y1="54.067%" y2="54.067%"><stop offset="0%" stop-color="#FFF"/><stop offset="100%" stop-color="#BABABA"/></linearGradient><linearGradient id="e" x1="50%" x2="100%" y1="54.067%" y2="54.067%"><stop offset="0%" stop-color="#FFF"/><stop offset="100%" stop-color="#BABABA"/></linearGradient><filter id="a" width="100.5%" height="102.9%" x="-.4%" y="-2.2%" filterUnits="objectBoundingBox"><feOffset dx="-1" dy="-1" in="SourceAlpha" result="shadowOffsetOuter1"/><feColorMatrix in="shadowOffsetOuter1" values="0 0 0 0 0 0 0 0 0 0 0 0 0 0 0 0 0 0 0.355320143 0"/></filter><path id="b" d="M134.865 250.408c6.263 0 11.41 1.36 15.439 4.081 4.03 2.72 6.044 6.75 6.044 12.089v.924h-14.784v-.308c0-1.489-.526-2.708-1.578-3.658-1.052-.95-2.657-1.424-4.813-1.424-2.104 0-3.696.295-4.774.885-1.078.59-1.617 1.374-1.617 2.349 0 1.18.63 2.117 1.887 2.81 1.258.694 3.093 1.297 5.505 1.81l6.853 1.54c9.548 2.156 14.322 7.11 14.322 14.861 0 6.314-2.079 10.96-6.237 13.937-4.158 2.977-9.907 4.466-17.248 4.466-4.055 0-7.79-.616-11.203-1.848-3.414-1.232-6.16-3.118-8.24-5.66-2.078-2.54-3.118-5.685-3.118-9.432v-.924c0-.41.026-.719.077-.924h14.938c-.05.154-.077.462-.077.924 0 1.591.552 2.9 1.656 3.927 1.104 1.027 2.939 1.54 5.505 1.54 2.824 0 4.749-.295 5.775-.885 1.027-.59 1.54-1.4 1.54-2.426 0-1.232-.718-2.169-2.156-2.81-1.437-.642-3.696-1.297-6.776-1.964-3.9-.821-7.148-1.732-9.74-2.733-2.592-1.002-4.838-2.644-6.738-4.928-1.899-2.285-2.849-5.429-2.849-9.433 0-3.593.989-6.648 2.965-9.163 1.976-2.515 4.658-4.415 8.046-5.698 3.388-1.283 7.187-1.925 11.396-1.925Zm49.825 13.475c3.952 0 7.353.757 10.202 2.272 2.85 1.514 5.03 3.606 6.545 6.275 1.515 2.67 2.272 5.724 2.272 9.163v4.774h-25.641v3.696c0 1.745.552 3.08 1.655 4.004 1.104.924 2.528 1.386 4.274 1.386 1.796 0 3.17-.552 4.12-1.655.949-1.104 1.424-2.631 1.424-4.582h14.09c0 2.926-.756 5.57-2.27 7.931-1.515 2.361-3.722 4.222-6.623 5.582-2.9 1.36-6.327 2.041-10.28 2.041h-1.154c-4.107 0-7.79-.757-11.05-2.272-3.26-1.514-5.826-3.721-7.7-6.621-1.873-2.9-2.81-6.353-2.81-10.357v-2.387c0-4.004.885-7.456 2.656-10.356 1.771-2.9 4.248-5.108 7.43-6.623 3.183-1.514 6.828-2.271 10.935-2.271h1.925Zm-1.31 9.317c-1.488 0-2.746.526-3.772 1.579-1.027 1.052-1.54 2.322-1.54 3.811v1.078h10.626v-1.078c0-1.489-.514-2.76-1.54-3.811-1.027-1.053-2.285-1.579-3.773-1.579Zm41.51-9.24c2.822 0 5.21.462 7.16 1.386 1.95.924 3.67 2.438 5.16 4.543l5.851-5.236h5.39v53.207h-15.246v-17.864c-2.823 3.234-6.211 4.851-10.164 4.851-2.823 0-5.351-.744-7.584-2.233-2.233-1.489-4.004-3.734-5.313-6.737-1.31-3.004-1.964-6.687-1.964-11.05v-.847c0-4.363.732-8.046 2.195-11.05 1.463-3.003 3.452-5.248 5.967-6.737 2.515-1.489 5.364-2.233 8.547-2.233Zm3.541 9.317c-1.335 0-2.464.526-3.388 1.579-.924 1.052-1.386 2.322-1.386 3.811v11.165c0 1.489.462 2.76 1.386 3.812.924 1.052 2.053 1.578 3.388 1.578s2.464-.526 3.388-1.578c.924-1.053 1.386-2.323 1.386-3.812v-11.165c0-1.489-.462-2.76-1.386-3.811-.924-1.053-2.053-1.579-3.388-1.579Zm66.225 19.327c0 .975.231 1.694.693 2.156a2.304 2.304 0 0 0 1.694.693c.976 0 1.874-.231 2.695-.693v8.239c-1.642 1.18-4.235 1.771-7.777 1.771-3.285 0-5.8-.526-7.546-1.578-1.745-1.053-3.003-2.606-3.773-4.659-.872 1.335-2.31 2.708-4.312 4.12-2.002 1.411-4.209 2.117-6.622 2.117h-2.156c-2.104 0-4.042-.513-5.813-1.54a11.35 11.35 0 0 1-4.197-4.197c-1.026-1.77-1.54-3.708-1.54-5.813v-28.567h15.246v24.64c0 1.283.398 2.374 1.194 3.272.796.899 1.758 1.348 2.887 1.348 1.13 0 2.092-.45 2.888-1.348.796-.898 1.193-1.989 1.193-3.272v-24.64h15.246v27.951Zm31.345-28.721c3.952 0 7.353.757 10.202 2.272 2.85 1.514 5.03 3.606 6.545 6.275 1.515 2.67 2.272 5.724 2.272 9.163v4.774h-25.641v3.696c0 1.745.552 3.08 1.655 4.004 1.104.924 2.528 1.386 4.274 1.386 1.796 0 3.17-.552 4.12-1.655.949-1.104 1.424-2.631 1.424-4.582h14.09c0 2.926-.756 5.57-2.27 7.931-1.515 2.361-3.722 4.222-6.623 5.582-2.9 1.36-6.327 2.041-10.28 2.041h-1.154c-4.107 0-7.79-.757-11.05-2.272-3.26-1.514-5.826-3.721-7.7-6.621-1.873-2.9-2.81-6.353-2.81-10.357v-2.387c0-4.004.885-7.456 2.656-10.356 1.771-2.9 4.248-5.108 7.43-6.623 3.183-1.514 6.828-2.271 10.935-2.271H326Zm-1.31 9.317c-1.488 0-2.746.526-3.772 1.579-1.027 1.052-1.54 2.322-1.54 3.811v1.078h10.626v-1.078c0-1.489-.514-2.76-1.54-3.811-1.027-1.053-2.285-1.579-3.773-1.579Zm41.817-24.64V304h-15.246v-55.44h15.246Zm73.93 55.44h-16.785l-3.157-9.394H403.71L400.63 304h-15.554l17.633-52.822h20.097L440.439 304Zm-28.49-36.575-4.542 16.016h9.394l-4.466-16.016h-.385Zm51.827-3.542c3.799 0 7.084.719 9.856 2.156 2.772 1.437 4.89 3.426 6.352 5.968 1.463 2.54 2.195 5.402 2.195 8.585h-13.013v-2.002c0-1.489-.513-2.76-1.54-3.811-1.027-1.053-2.284-1.579-3.773-1.579-1.489 0-2.746.526-3.773 1.579-1.027 1.052-1.54 2.322-1.54 3.811v11.473c0 1.489.526 2.76 1.578 3.812 1.053 1.052 2.323 1.578 3.812 1.578h.924c1.489 0 2.72-.513 3.696-1.54.975-1.027 1.463-2.31 1.463-3.85v-2.002h12.166c0 5.287-1.643 9.394-4.928 12.32s-7.751 4.389-13.398 4.389h-2.233c-3.44 0-6.648-.847-9.625-2.541-2.977-1.694-5.352-3.991-7.123-6.892-1.77-2.9-2.656-6.044-2.656-9.432v-3.157c0-3.388.873-6.532 2.618-9.433 1.745-2.9 4.094-5.197 7.045-6.891 2.952-1.694 6.148-2.541 9.587-2.541h2.31Zm45.435 0c3.953 0 7.354.757 10.203 2.272 2.849 1.514 5.03 3.606 6.545 6.275 1.514 2.67 2.271 5.724 2.271 9.163v4.774h-25.64v3.696c0 1.745.551 3.08 1.655 4.004 1.103.924 2.528 1.386 4.273 1.386 1.797 0 3.17-.552 4.12-1.655.95-1.104 1.424-2.631 1.424-4.582h14.091c0 2.926-.757 5.57-2.271 7.931-1.515 2.361-3.722 4.222-6.622 5.582-2.9 1.36-6.327 2.041-10.28 2.041h-1.155c-4.106 0-7.79-.757-11.05-2.272-3.259-1.514-5.826-3.721-7.7-6.621-1.873-2.9-2.81-6.353-2.81-10.357v-2.387c0-4.004.886-7.456 2.657-10.356 1.77-2.9 4.248-5.108 7.43-6.623 3.183-1.514 6.828-2.271 10.934-2.271h1.925Zm-1.309 9.317c-1.488 0-2.746.526-3.773 1.579-1.026 1.052-1.54 2.322-1.54 3.811v1.078h10.626v-1.078c0-1.489-.513-2.76-1.54-3.811-1.026-1.053-2.284-1.579-3.773-1.579Z"/></defs><g fill="none" fill-rule="evenodd"><g fill="#000"><use xlink:href="#b" filter="url(#a)"/><use xlink:href="#b"/></g><rect width="163.359" height="163.359" x="238.82" y="65.82" fill="url(#c)" rx="35.2"/><path fill="url(#d)" d="M379.555 139.492h.203v17.617c0 10.615-26.53 19.22-59.258 19.22-32.727 0-59.258-8.605-59.258-19.22v-17.617h.203c2.51 9.865 27.99 17.617 59.055 17.617 31.064 0 56.546-7.752 59.055-17.617Zm0-28.828h.203v17.617c0 10.614-26.53 19.219-59.258 19.219-32.727 0-59.258-8.605-59.258-19.219v-17.617h.203c2.51 9.865 27.99 17.617 59.055 17.617 31.064 0 56.546-7.752 59.055-17.617Zm0 57.656h.203v17.618c0 10.614-26.53 19.218-59.258 19.218-32.727 0-59.258-8.604-59.258-19.219V168.32h.203c2.51 9.865 27.99 17.618 59.055 17.618 31.064 0 56.546-7.753 59.055-17.618Z"/><ellipse cx="320.5" cy="109.063" fill="url(#e)" rx="59.258" ry="19.219"/><path fill="#000" fill-rule="nonzero" stroke="#000" stroke-width="1.475" d="M322.102 109.063c0-3.244 1.601 6.406 1.601 6.406l12.813-3.203-11.211-4.845s36.836-2.038 11.21-7.968c-19.218-1.601-24.09-2.596-27.226-3.203-1.602 1.602-14.414 8.445-14.414 11.17 0 4.846 20.82 5.119 27.227 1.643Z"/></g></svg>

<?xml version="1.0" ?>
<svg xmlns="http://www.w3.org/2000/svg" xmlns:xlink="http://www.w3.org/1999/xlink" viewBox="0 0 418 252.1">
	<style>
		.cls0 { fill: url(#d); }
		.cls1 { fill: #000; }
		.cls2 { fill: url(#e); }
	</style>
	<defs>
		<linearGradient id="c" x1="50%" x2="50%" y1="0%" y2="100%">
			<stop offset="0%" stop-color="#B32222"/>
			<stop offset="100%" stop-color="#691414"/>
		</linearGradient>
		<linearGradient id="d" x1="50%" x2="0%" y1="54.067%" y2="54.067%">
			<stop offset="0%" stop-color="#FFF"/>
			<stop offset="100%" stop-color="#BABABA"/>
		</linearGradient>
		<linearGradient id="e" x1="50%" x2="100%" y1="54.067%" y2="54.067%">
			<stop offset="0%" stop-color="#FFF"/>
			<stop offset="100%" stop-color="#BABABA"/>
		</linearGradient>
		<filter id="a" width="100.5%" height="102.9%" x="-.4%" y="-2.2%" filterUnits="objectBoundingBox">
			<feOffset dx="-1" dy="-1" in="SourceAlpha" result="shadowOffsetOuter1"/>
			<feColorMatrix in="shadowOffsetOuter1" values="0 0 0 0 0 0 0 0 0 0 0 0 0 0 0 0 0 0 0.355320143 0"/>
		</filter>
		<path id="b" d="M 134.865,250.408 C 141.128,250.408 146.275,251.768 150.304,254.489 C 154.334,257.209 156.348,261.239 156.348,266.578 L 156.348,267.502 L 141.564,267.502 L 141.564,267.194 C 141.564,265.705 141.038,264.486 139.986,263.536 C 138.934,262.586 137.329,262.112 135.173,262.112 C 133.069,262.112 131.477,262.407 130.399,262.997 C 129.321,263.587 128.782,264.371 128.782,265.346 C 128.782,266.526 129.412,267.463 130.669,268.156 C 131.927,268.85 133.762,269.453 136.174,269.966 L 143.027,271.506 C 152.575,273.662 157.349,278.616 157.349,286.367 C 157.349,292.681 155.27,297.327 151.112,300.304 C 146.954,303.281 141.205,304.77 133.864,304.77 C 129.809,304.77 126.074,304.154 122.661,302.922 C 119.247,301.69 116.501,299.804 114.421,297.262 C 112.343,294.722 111.303,291.577 111.303,287.83 L 111.303,286.906 C 111.303,286.496 111.329,286.187 111.38,285.982 L 126.318,285.982 C 126.268,286.136 126.241,286.444 126.241,286.906 C 126.241,288.497 126.793,289.806 127.897,290.833 C 129.001,291.86 130.836,292.373 133.402,292.373 C 136.226,292.373 138.151,292.078 139.177,291.488 C 140.204,290.898 140.717,290.088 140.717,289.062 C 140.717,287.83 139.999,286.893 138.561,286.252 C 137.124,285.61 134.865,284.955 131.785,284.288 C 127.885,283.467 124.637,282.556 122.045,281.555 C 119.453,280.553 117.207,278.911 115.307,276.627 C 113.408,274.342 112.458,271.198 112.458,267.194 C 112.458,263.601 113.447,260.546 115.423,258.031 C 117.399,255.516 120.081,253.616 123.469,252.333 C 126.857,251.05 130.656,250.408 134.865,250.408 L 134.865,250.408 M 184.69,263.883 C 188.642,263.883 192.043,264.64 194.892,266.155 C 197.742,267.669 199.922,269.761 201.437,272.43 C 202.952,275.1 203.709,278.154 203.709,281.593 L 203.709,286.367 L 178.068,286.367 L 178.068,290.063 C 178.068,291.808 178.62,293.143 179.723,294.067 C 180.827,294.991 182.251,295.453 183.997,295.453 C 185.793,295.453 187.167,294.901 188.117,293.798 C 189.066,292.694 189.541,291.167 189.541,289.216 L 203.631,289.216 C 203.631,292.142 202.875,294.786 201.361,297.147 C 199.846,299.508 197.639,301.369 194.738,302.729 C 191.838,304.089 188.411,304.77 184.458,304.77 L 183.304,304.77 C 179.197,304.77 175.514,304.013 172.254,302.498 C 168.994,300.984 166.428,298.777 164.554,295.877 C 162.681,292.977 161.744,289.524 161.744,285.52 L 161.744,283.133 C 161.744,279.129 162.629,275.677 164.4,272.777 C 166.171,269.877 168.648,267.669 171.83,266.154 C 175.013,264.64 178.658,263.883 182.765,263.883 L 184.69,263.883 L 184.69,263.883 M 183.38,273.2 C 181.892,273.2 180.634,273.726 179.608,274.779 C 178.581,275.831 178.068,277.101 178.068,278.59 L 178.068,279.668 L 188.694,279.668 L 188.694,278.59 C 188.694,277.101 188.18,275.83 187.154,274.779 C 186.127,273.726 184.869,273.2 183.381,273.2 L 183.38,273.2 M 224.89,263.96 C 227.712,263.96 230.1,264.422 232.05,265.346 C 234.0,266.27 235.72,267.784 237.21,269.889 L 243.061,264.653 L 248.451,264.653 L 248.451,317.86 L 233.205,317.86 L 233.205,299.996 C 230.382,303.23 226.994,304.847 223.041,304.847 C 220.218,304.847 217.69,304.103 215.457,302.614 C 213.224,301.125 211.453,298.88 210.144,295.877 C 208.834,292.873 208.18,289.19 208.18,284.827 L 208.18,283.98 C 208.18,279.617 208.912,275.934 210.375,272.93 C 211.838,269.927 213.827,267.682 216.342,266.193 C 218.857,264.704 221.706,263.96 224.889,263.96 L 224.89,263.96 M 228.431,273.277 C 227.096,273.277 225.967,273.803 225.043,274.856 C 224.119,275.908 223.657,277.178 223.657,278.667 L 223.657,289.832 C 223.657,291.321 224.119,292.592 225.043,293.644 C 225.967,294.696 227.096,295.222 228.431,295.222 C 229.766,295.222 230.895,294.696 231.819,293.644 C 232.743,292.591 233.205,291.321 233.205,289.832 L 233.205,278.667 C 233.205,277.178 232.743,275.907 231.819,274.856 C 230.895,273.803 229.766,273.277 228.431,273.277 M 294.656,292.604 C 294.656,293.579 294.887,294.298 295.349,294.76 A 2.304,2.304 0.0 0,0 297.043,295.453 C 298.019,295.453 298.917,295.222 299.738,294.76 L 299.738,302.999 C 298.096,304.179 295.503,304.77 291.961,304.77 C 288.676,304.77 286.161,304.244 284.415,303.192 C 282.67,302.139 281.412,300.586 280.642,298.533 C 279.77,299.868 278.332,301.241 276.33,302.653 C 274.328,304.064 272.121,304.77 269.708,304.77 L 267.552,304.77 C 265.448,304.77 263.51,304.257 261.739,303.23 A 11.35,11.35 0.0 0,1 257.542,299.033 C 256.516,297.263 256.002,295.325 256.002,293.22 L 256.002,264.653 L 271.248,264.653 L 271.248,289.293 C 271.248,290.576 271.646,291.667 272.442,292.565 C 273.238,293.464 274.2,293.913 275.329,293.913 C 276.459,293.913 277.421,293.463 278.217,292.565 C 279.013,291.667 279.41,290.576 279.41,289.293 L 279.41,264.653 L 294.656,264.653 L 294.656,292.604 L 294.656,292.604 M 326.001,263.883 C 329.953,263.883 333.354,264.64 336.203,266.155 C 339.053,267.669 341.233,269.761 342.748,272.43 C 344.263,275.1 345.02,278.154 345.02,281.593 L 345.02,286.367 L 319.379,286.367 L 319.379,290.063 C 319.379,291.808 319.931,293.143 321.034,294.067 C 322.138,294.991 323.562,295.453 325.308,295.453 C 327.104,295.453 328.478,294.901 329.428,293.798 C 330.377,292.694 330.852,291.167 330.852,289.216 L 344.942,289.216 C 344.942,292.142 344.186,294.786 342.672,297.147 C 341.157,299.508 338.95,301.369 336.049,302.729 C 333.149,304.089 329.722,304.77 325.769,304.77 L 324.615,304.77 C 320.508,304.77 316.825,304.013 313.565,302.498 C 310.305,300.984 307.739,298.777 305.865,295.877 C 303.992,292.977 303.055,289.524 303.055,285.52 L 303.055,283.133 C 303.055,279.129 303.94,275.677 305.711,272.777 C 307.482,269.877 309.959,267.669 313.141,266.154 C 316.324,264.64 319.969,263.883 324.076,263.883 L 326.0,263.883 L 326.001,263.883 M 324.691,273.2 C 323.203,273.2 321.945,273.726 320.919,274.779 C 319.892,275.831 319.379,277.101 319.379,278.59 L 319.379,279.668 L 330.005,279.668 L 330.005,278.59 C 330.005,277.101 329.491,275.83 328.465,274.779 C 327.438,273.726 326.18,273.2 324.692,273.2 L 324.691,273.2 M 366.508,248.56 L 366.508,304.0 L 351.262,304.0 L 351.262,248.56 L 366.508,248.56 M 440.438,304.0 L 423.653,304.0 L 420.496,294.606 L 403.71,294.606 L 400.63,304.0 L 385.076,304.0 L 402.709,251.178 L 422.806,251.178 L 440.439,304.0 L 440.438,304.0 M 411.948,267.425 L 407.406,283.441 L 416.8,283.441 L 412.334,267.425 L 411.949,267.425 L 411.948,267.425 M 463.775,263.883 C 467.574,263.883 470.859,264.602 473.631,266.039 C 476.403,267.476 478.521,269.465 479.983,272.007 C 481.446,274.547 482.178,277.409 482.178,280.592 L 469.165,280.592 L 469.165,278.59 C 469.165,277.101 468.652,275.83 467.625,274.779 C 466.598,273.726 465.341,273.2 463.852,273.2 C 462.363,273.2 461.106,273.726 460.079,274.779 C 459.052,275.831 458.539,277.101 458.539,278.59 L 458.539,290.063 C 458.539,291.552 459.065,292.823 460.117,293.875 C 461.17,294.927 462.44,295.453 463.929,295.453 L 464.853,295.453 C 466.342,295.453 467.573,294.94 468.549,293.913 C 469.524,292.886 470.012,291.603 470.012,290.063 L 470.012,288.061 L 482.178,288.061 C 482.178,293.348 480.535,297.455 477.25,300.381 C 473.965,303.307 469.499,304.77 463.852,304.77 L 461.619,304.77 C 458.179,304.77 454.971,303.923 451.994,302.229 C 449.017,300.535 446.642,298.238 444.871,295.337 C 443.101,292.437 442.215,289.293 442.215,285.905 L 442.215,282.748 C 442.215,279.36 443.088,276.216 444.833,273.315 C 446.578,270.415 448.927,268.118 451.878,266.424 C 454.83,264.73 458.026,263.883 461.465,263.883 L 463.775,263.883 L 463.775,263.883 M 509.21,263.883 C 513.163,263.883 516.564,264.64 519.413,266.155 C 522.262,267.669 524.443,269.761 525.958,272.43 C 527.472,275.1 528.229,278.154 528.229,281.593 L 528.229,286.367 L 502.589,286.367 L 502.589,290.063 C 502.589,291.808 503.14,293.143 504.244,294.067 C 505.347,294.991 506.772,295.453 508.517,295.453 C 510.314,295.453 511.687,294.901 512.637,293.798 C 513.587,292.6943 514.061,291.1674 514.061,289.216 L 528.152,289.216 C 528.152,292.142 527.395,294.786 525.881,297.147 C 524.366,299.508 522.159,301.369 519.259,302.729 C 516.359,304.089 512.932,304.77 508.979,304.77 L 507.824,304.77 C 503.718,304.77 500.034,304.013 496.774,302.498 C 493.515,300.984 490.948,298.777 489.074,295.877 C 487.201,292.9775 486.264,289.524 486.264,285.52 L 486.264,283.133 C 486.264,279.129 487.15,275.677 488.921,272.777 C 490.691,269.877 493.169,267.669 496.351,266.154 C 499.534,264.64 503.179,263.883 507.285,263.883 L 509.21,263.883 L 509.21,263.883 M 507.901,273.2 C 506.413,273.2 505.155,273.726 504.128,274.779 C 503.102,275.831 502.588,277.101 502.588,278.59 L 502.588,279.668 L 513.214,279.668 L 513.214,278.59 C 513.214,277.101 512.701,275.83 511.674,274.779 C 510.648,273.726 509.39,273.2 507.901,273.2 L 507.901,273.2"/>
	</defs>
	<g fill="none" fill-rule="evenodd" transform="translate(-110.3 -65.8)">
		<g class="cls1">
			<use xlink:href="#b" filter="url(#a)"/>
			<use xlink:href="#b"/>
		</g>
		<rect width="163.359" height="163.359" x="238.82" y="65.82" fill="url(#c)" rx="35.2"/>
		<path d="M 379.555,139.492 L 379.758,139.492 L 379.758,157.109 C 379.758,167.724 353.228,176.329 320.5,176.329 C 287.773,176.329 261.242,167.724 261.242,157.109 L 261.242,139.492 L 261.445,139.492 C 263.955,149.357 289.435,157.109 320.5,157.109 C 351.564,157.109 377.046,149.357 379.555,139.492 M 379.555,110.664 L 379.758,110.664 L 379.758,128.281 C 379.758,138.895 353.228,147.5 320.5,147.5 C 287.773,147.5 261.242,138.895 261.242,128.281 L 261.242,110.664 L 261.445,110.664 C 263.955,120.529 289.435,128.281 320.5,128.281 C 351.564,128.281 377.046,120.529 379.555,110.664 L 379.555,110.664 M 379.555,168.32 L 379.758,168.32 L 379.758,185.938 C 379.758,196.552 353.228,205.156 320.5,205.156 C 287.773,205.156 261.242,196.552 261.242,185.937 L 261.242,168.32 L 261.445,168.32 C 263.955,178.185 289.435,185.938 320.5,185.938 C 351.564,185.938 377.046,178.185 379.555,168.32" class="cls0"/>
		<ellipse cx="320.5" cy="109.063" rx="59.258" ry="19.219" class="cls2"/>
		<path fill-rule="nonzero" stroke="#000" stroke-width="1.475" d="M 322.102,109.063 C 322.102,105.819 323.703,115.469 323.703,115.469 L 336.516,112.266 L 325.305,107.421 C 325.305,107.421 362.141,105.383 336.515,99.453 C 317.297,97.852 312.425,96.857 309.289,96.25 C 307.687,97.852 294.875,104.695 294.875,107.42 C 294.875,112.266 315.695,112.539 322.102,109.063 L 322.102,109.063" class="cls1"/>
	</g>
</svg>
